X: 1344
T: An Phis Fhliuch
R: slip jig
M: 9/8
K: Gmajor
|:FGA AFA c2A|BAG FAF GED|FGA AFA d2A|dfe d^cA GED:|
|:d^cd ege =c2A|d^cd fef gfg|agf ged c2A|BAG FAF GED:|
|:FGA AFd AFd|AFd AFA GED|FGA AFA c2A|BAG FAF GED:|
|:~D3 ~D3 c3|cAB cBA GED|~D3 ~D3 d2A|dfe d^cA GED:|
|:d^cd ege =c2A|d^cd fef gfg|agf ged c2A|BAG FAF GED:|

